X: 1
T: Tell Her I Am
R: jig
M: 6/8
L: 1/8
K: Gmaj
e|:edB G3|DED ~G3|DED c2 d|BGE E2 e|
|edB ~G3|DED ~G3|AGF GBA|1 GFE D2 e:|2 GFE D2 A||
|:~B3 dBG|~B3 dBG|ABA ABA|AGF E2 c|~B3 deg|
age d2 B|cBA GBA|1 GFE D2 A:|2 GFE D3||
efg efg|dBG GBd|e2 a aga|bge e2 d|
efg efg|dBG Gef|gfe gba|gfe d3|
efg efg|dBG GBd|e2 a aga|bge e2 A|
def gba|gfe d2 B|cBA GBA|GFE DBd||


Tune 161	Setting 12786

